<?xml version="1.0" encoding="UTF-8"?>
<map version="1.10" tiledversion="1.12.2" orientation="orthogonal" renderorder="right-down" width="20" height="20" tilewidth="16" tileheight="16" infinite="0" nextlayerid="2" nextobjectid="1">
 <tileset firstgid="1" source="sok.tsx"/>
 <layer id="1" name="Calque de Tuiles 1" width="20" height="20">
  <data encoding="csv">
0,0,0,0,0,0,0,0,3,3,3,3,3,3,3,3,0,0,0,0,
0,0,0,0,0,0,0,0,3,7,7,7,7,7,7,3,0,0,0,0,
0,0,0,0,0,0,0,0,3,7,21,19,21,7,3,2,0,0,0,0,
0,0,0,0,0,0,0,0,3,7,21,7,7,21,3,0,0,0,0,0,
0,0,0,0,0,0,0,0,3,19,21,7,21,7,3,0,0,0,0,0,
3,3,3,3,3,3,3,3,3,7,21,7,19,7,1,1,3,0,0,0,
3,4,4,4,4,7,7,2,2,7,21,7,7,21,7,7,3,0,0,0,
3,19,4,4,4,7,7,7,7,21,7,7,21,7,7,7,3,0,0,0,
3,4,4,4,4,7,7,3,1,1,1,1,1,1,1,1,1,0,0,0,
1,1,1,1,1,1,1,1,0,0,0,0,0,0,0,0,0,0,0,0,
0,0,0,0,0,0,0,0,0,0,0,0,0,0,0,0,0,0,0,0,
0,0,0,0,0,0,0,0,0,0,0,0,0,0,0,0,0,0,0,0,
0,0,0,0,0,0,0,0,0,0,0,0,0,0,0,0,0,0,0,0,
0,0,0,0,0,0,0,0,0,0,0,0,0,0,0,0,0,0,0,0,
0,0,0,0,0,0,0,0,0,0,0,0,0,0,0,0,0,0,0,0,
0,0,0,0,0,0,0,0,0,0,0,0,0,0,0,0,0,0,0,0,
0,0,0,0,0,0,0,0,0,0,0,0,0,0,0,0,0,0,0,0,
0,0,0,0,0,0,0,0,0,0,0,0,0,0,0,0,0,0,0,0,
0,0,0,0,0,0,0,0,0,0,0,0,0,0,0,0,0,0,0,0,
0,0,0,0,0,0,0,0,0,0,0,0,0,0,0,0,0,0,0,0
</data>
 </layer>
</map>
