<?xml version="1.0" encoding="UTF-8"?>
<map version="1.10" tiledversion="1.12.2" orientation="orthogonal" renderorder="right-down" width="20" height="20" tilewidth="16" tileheight="16" infinite="0" nextlayerid="2" nextobjectid="1">
 <editorsettings>
  <export target="level12.csv" format="csv"/>
 </editorsettings>
 <tileset firstgid="1" source="sok.tsx"/>
 <layer id="1" name="Calque de Tuiles 1" width="20" height="20">
  <data encoding="csv">
3,1,1,1,1,1,1,1,1,1,1,1,1,1,1,3,0,0,0,0,
3,6,6,6,6,6,6,6,6,6,6,6,6,6,6,3,0,0,0,0,
3,6,3,6,1,1,1,1,1,1,6,6,6,6,6,3,0,0,0,0,
3,6,3,6,6,21,6,21,6,21,6,21,11,6,6,3,0,0,0,0,
3,6,3,6,6,6,21,6,21,6,6,6,16,12,6,2,3,0,0,0,
3,6,3,6,6,21,6,21,6,21,11,11,17,4,4,4,3,0,0,0,
3,6,3,6,6,6,21,6,21,6,6,16,17,4,4,4,3,0,0,0,
3,6,1,2,2,21,21,21,6,21,6,16,17,4,4,4,3,0,0,0,
3,6,6,6,6,6,19,6,11,12,6,16,17,4,4,4,3,0,0,0,
1,1,1,1,3,6,6,6,16,16,6,16,17,4,4,4,3,0,0,0,
0,0,0,0,2,2,2,2,3,6,6,6,6,6,3,2,2,0,0,0,
0,0,0,0,0,0,0,0,3,6,6,6,6,6,3,0,0,0,0,0,
0,0,0,0,0,0,0,0,1,1,1,1,1,1,1,0,0,0,0,0,
0,0,0,0,0,0,0,0,0,0,0,0,0,0,0,0,0,0,0,0,
0,0,0,0,0,0,0,0,0,0,0,0,0,0,0,0,0,0,0,0,
0,0,0,0,0,0,0,0,0,0,0,0,0,0,0,0,0,0,0,0,
0,0,0,0,0,0,0,0,0,0,0,0,0,0,0,0,0,0,0,0,
0,0,0,0,0,0,0,0,0,0,0,0,0,0,0,0,0,0,0,0,
0,0,0,0,0,0,0,0,0,0,0,0,0,0,0,0,0,0,0,0,
0,0,0,0,0,0,0,0,0,0,0,0,0,0,0,0,0,0,0,0
</data>
 </layer>
</map>
